assets/images/social.svg

<svg width="120" height="110" viewBox="0 0 120 110" fill="none" xmlns="http://www.w3.org/2000/svg">
<path d="M10.9091 0H120L109.091 109.091H0L10.9091 0Z" fill="#FDCC0A"/>
<g clip-path="url(#clip0_1_609)">
<path d="M87.064 75.0845L84.4541 77.6943C82.7674 79.407 80.6621 80.6486 78.3471 81.2959C76.0399 81.9213 73.6078 81.9213 71.3006 81.2959C66.5433 80.0826 62.0134 78.1085 57.8861 75.4499C54.0949 72.9988 50.5929 70.1272 47.4467 66.8896C44.4792 63.9693 41.8205 60.7509 39.5129 57.2855C36.8883 53.5848 34.8137 49.5235 33.3537 45.228C32.65 42.7543 32.65 40.1333 33.3537 37.6595C33.942 35.1341 35.247 32.8323 37.1118 31.0306L40.1914 27.951C40.3955 27.7426 40.6392 27.5771 40.908 27.4642C41.1769 27.3512 41.4657 27.293 41.7573 27.293C42.049 27.293 42.3377 27.3512 42.6066 27.4642C42.8755 27.5771 43.1191 27.7426 43.3232 27.951L53.084 37.7117C53.2923 37.9158 53.4578 38.1595 53.5708 38.4284C53.6838 38.6973 53.742 38.986 53.742 39.2776C53.742 39.5693 53.6838 39.858 53.5708 40.1269C53.4578 40.3958 53.2923 40.6394 53.084 40.8435L47.3423 46.5852C46.556 47.384 46.0776 48.4352 45.9916 49.5528C45.9057 50.6704 46.2177 51.7824 46.8726 52.6922C48.9555 55.5313 51.2593 58.2016 53.7625 60.6782C56.5257 63.4973 59.5491 66.0489 62.7925 68.2989C63.6956 68.9294 64.7914 69.2225 65.8885 69.1271C66.9857 69.0317 68.0145 68.5538 68.7952 67.777L74.3802 62.1397C74.5798 61.9329 74.819 61.7685 75.0836 61.6561C75.3481 61.5438 75.6326 61.4859 75.92 61.4859C76.2074 61.4859 76.4919 61.5438 76.7564 61.6561C77.021 61.7685 77.2602 61.9329 77.4598 62.1397L87.2205 71.9527C87.419 72.1671 87.5726 72.4189 87.6724 72.6935C87.7722 72.9681 87.816 73.2598 87.8014 73.5516C87.7868 73.8433 87.7141 74.1292 87.5874 74.3925C87.4608 74.6557 87.2828 74.891 87.064 75.0845Z" fill="#1C1C1C"/>
</g>
<defs>
<clipPath id="clip0_1_609">
<rect width="55.0152" height="54.5455" fill="white" transform="translate(32.7273 27.2725)"/>
</clipPath>
</defs>
</svg>

<svg width="120" height="110" fill="none" xmlns="http://www.w3.org/2000/svg"><path d="M10.91 0H120l-10.909 109.091H0L10.91 0Z" fill="#FDCC0A"/><g clip-path="url(#a)"><path d="m87.064 75.085-2.61 2.61a13.779 13.779 0 0 1-6.107 3.6c-2.307.626-4.74.626-7.046 0a45.566 45.566 0 0 1-13.415-5.845 59.92 59.92 0 0 1-10.44-8.56 60.596 60.596 0 0 1-7.933-9.605 46.973 46.973 0 0 1-6.16-12.057 13.83 13.83 0 0 1 0-7.569 13.465 13.465 0 0 1 3.759-6.628l3.08-3.08a2.19 2.19 0 0 1 3.131 0l9.761 9.76a2.193 2.193 0 0 1 0 3.133l-5.742 5.741a4.75 4.75 0 0 0-.47 6.107 66.915 66.915 0 0 0 6.89 7.986 62.639 62.639 0 0 0 9.03 7.62 4.697 4.697 0 0 0 6.003-.521l5.585-5.637a2.14 2.14 0 0 1 3.08 0l9.76 9.813a2.193 2.193 0 0 1-.156 3.132Z" fill="#1C1C1C"/></g><defs><clipPath id="a"><path fill="#fff" transform="translate(32.727 27.273)" d="M0 0h55.015v54.545H0z"/></clipPath></defs></svg>
